X:114
T:Cameronian Rant, The
R:Strathspey
S:McGlashan -
M:C|
L:1/8
K:B_
f|c>F F/F/F c>FAf|c>F F/F/F c2 A>d|B>G G/G/G B>G A>d|B>G G/G/G c2 A:|
G|Fff>g fdcA|Fff>g fdcA|Ggg>a gfed|dgg>a gfed|cff>g fdcA|Fff>g e2 cf|
e/f/g dg e/f/g dg|e/f/g dg e2 d||
|:f|cFdF cFAf|cF F/F/F c2 Ad|BGdG BGAd|BG G/G/G c2A:|
G|FfFf g/f/e/d/ c/d/c/A/|FfFf g/f/e/d/ c/d/c/A/|GgGg a/g/f/e/ d/c/B/A/|
GgGg a/g/f/e/ d/c/B/A/|FfFf g/f/e/d/ c/d/c/A/|FfFf e2 cf|e/f/g/e/ d/e/f/d/
e/f/g/e/ d/e/f/d/|
e/f/g/e/ d/e/f/d/ e2d||

